src/assets/icons/window-maximize.svg

<svg width="14" height="14" viewBox="0 0 14 14" fill="none" xmlns="http://www.w3.org/2000/svg">
<g id="window-maximize">
<g clip-path="url(#clip0_156_4645)">
<g id="Vector">
<path d="M7 14H11.8C13.0136 14 14 13.0136 14 11.8V2.2C14 0.9864 13.0136 0 11.8 0H2.2C0.9864 0 0 0.9864 0 2.2V7C0 7.3312 0.2688 7.6 0.6 7.6C0.9312 7.6 1.2 7.3312 1.2 7V2.2C1.2 1.6488 1.6488 1.2 2.2 1.2H11.8C12.3512 1.2 12.8 1.6488 12.8 2.2V11.8C12.8 12.3512 12.3512 12.8 11.8 12.8H7C6.6688 12.8 6.4 13.0688 6.4 13.4C6.4 13.7312 6.6688 14 7 14Z" fill="black"/>
<path d="M9.6 7C9.6 7.3312 9.8688 7.6 10.2 7.6C10.5312 7.6 10.8 7.3312 10.8 7V3.82643C10.8072 3.66402 10.7488 3.49924 10.6248 3.37521C10.5008 3.25125 10.3361 3.19284 10.1738 3.2H7C6.6688 3.2 6.4 3.4688 6.4 3.8C6.4 4.1312 6.6688 4.4 7 4.4H8.75121L6.176 6.97521C5.9416 7.20961 5.9416 7.58961 6.176 7.82401C6.2928 7.94161 6.4464 8.00001 6.6 8.00001C6.7536 8.00001 6.9072 7.94161 7.0248 7.82401L9.6 5.24881V7Z" fill="black"/>
<path fill-rule="evenodd" clip-rule="evenodd" d="M1.4 14H3.8C4.572 14 5.2 13.372 5.2 12.6V10.2C5.2 9.428 4.572 8.8 3.8 8.8H1.4C0.628 8.8 0 9.428 0 10.2V12.6C0 13.372 0.628 14 1.4 14ZM1.2 10.2C1.2 10.0896 1.2896 10 1.4 10H3.8C3.9088 10 4 10.0912 4 10.2V12.6C4 12.7088 3.9088 12.8 3.8 12.8H1.4C1.2912 12.8 1.2 12.7088 1.2 12.6V10.2Z" fill="black"/>
</g>
</g>
</g>
<defs>
<clipPath id="clip0_156_4645">
<rect width="14" height="14" fill="white"/>
</clipPath>
</defs>
</svg>

<svg xmlns="http://www.w3.org/2000/svg" fill="none" viewBox="0 0 14 14"><g fill="#000" clip-path="url(#a)"><path d="M7 14h4.8c1.214 0 2.2-.986 2.2-2.2V2.2C14 .986 13.014 0 11.8 0H2.2C.986 0 0 .986 0 2.2V7a.6.6 0 0 0 1.2 0V2.2c0-.551.449-1 1-1h9.6c.551 0 1 .449 1 1v9.6c0 .551-.449 1-1 1H7A.6.6 0 0 0 7 14"/><path d="M9.6 7a.6.6 0 0 0 1.2 0V3.826a.6.6 0 0 0-.626-.626H7a.6.6 0 0 0 0 1.2h1.751L6.176 6.975a.6.6 0 1 0 .849.849L9.6 5.249z"/><path fill-rule="evenodd" d="M1.4 14h2.4c.772 0 1.4-.628 1.4-1.4v-2.4c0-.772-.628-1.4-1.4-1.4H1.4c-.772 0-1.4.628-1.4 1.4v2.4c0 .772.628 1.4 1.4 1.4m-.2-3.8c0-.11.09-.2.2-.2h2.4c.109 0 .2.091.2.2v2.4c0 .109-.091.2-.2.2H1.4a.2.2 0 0 1-.2-.2z" clip-rule="evenodd"/></g><defs><clipPath id="a"><path fill="#fff" d="M0 0h14v14H0z"/></clipPath></defs></svg>
